icons/omega/omega-capital.svg

<svg width="14" height="14" viewBox="0 0 14 14" fill="none" xmlns="http://www.w3.org/2000/svg">
<path d="M4.31836 3.50488C5.88095 2.25483 8.10992 2.23627 9.68555 3.47558C11.3844 4.81195 11.8307 7.20057 10.7295 9.06054L9.87793 10.5H11C11.2761 10.5 11.5 10.7239 11.5 11C11.5 11.2761 11.2761 11.5 11 11.5H9C8.99046 11.5 8.98109 11.4976 8.97168 11.4971C8.95207 11.496 8.9326 11.4946 8.91309 11.4912C8.89982 11.4889 8.88691 11.4858 8.87402 11.4824C8.85487 11.4774 8.83611 11.4713 8.81738 11.4639C8.804 11.4586 8.79111 11.4527 8.77832 11.4463C8.76745 11.4409 8.75573 11.4369 8.74512 11.4307C8.74052 11.4279 8.7369 11.4237 8.73242 11.4209C8.71684 11.411 8.70282 11.3992 8.68848 11.3877C8.67734 11.3788 8.66547 11.3711 8.65527 11.3613C8.64424 11.3508 8.63504 11.3386 8.625 11.3271C8.6129 11.3133 8.60024 11.3001 8.58984 11.2852C8.58266 11.2748 8.57672 11.2638 8.57031 11.2529C8.56053 11.2363 8.55073 11.2197 8.54297 11.2021C8.53669 11.188 8.53231 11.173 8.52734 11.1582C8.52247 11.1436 8.51719 11.1292 8.51367 11.1143C8.50964 11.097 8.50806 11.0794 8.50586 11.0615C8.50386 11.0456 8.50144 11.0298 8.50098 11.0137C8.50085 11.0091 8.5 11.0046 8.5 11C8.5 10.9905 8.50143 10.9811 8.50195 10.9717C8.50304 10.9521 8.50439 10.9326 8.50781 10.9131C8.51013 10.8998 8.51326 10.8869 8.5166 10.874C8.52158 10.8549 8.52779 10.8361 8.53516 10.8174C8.53666 10.8136 8.53747 10.8094 8.53906 10.8057L8.56934 10.7451L9.86914 8.55078C10.7148 7.12225 10.3712 5.28804 9.06641 4.26172C7.85876 3.31211 6.14579 3.32421 4.94336 4.28613C3.63614 5.33191 3.29609 7.18902 4.15527 8.62109L5.42871 10.7432L5.43945 10.7656C5.44913 10.7837 5.4584 10.8019 5.46582 10.8213L5.47168 10.834C5.47572 10.8454 5.4773 10.8575 5.48047 10.8691C5.48406 10.8824 5.48772 10.8955 5.49023 10.9092C5.50133 10.9692 5.50195 11.0299 5.49121 11.0889C5.48906 11.1009 5.48541 11.1123 5.48242 11.124C5.47788 11.1416 5.47225 11.1587 5.46582 11.1758C5.46036 11.1902 5.45399 11.204 5.44727 11.2178C5.43999 11.2327 5.43261 11.2475 5.42383 11.2617C5.41676 11.2731 5.40931 11.2841 5.40137 11.2949C5.39138 11.3085 5.38058 11.3213 5.36914 11.334C5.35967 11.3444 5.35015 11.3546 5.33984 11.3643C5.32938 11.374 5.31807 11.3827 5.30664 11.3916C5.29301 11.4023 5.27936 11.4126 5.26465 11.4219C5.26176 11.4237 5.25977 11.4269 5.25684 11.4287C5.24728 11.4344 5.23634 11.4374 5.22656 11.4424C5.21231 11.4497 5.1986 11.4579 5.18359 11.4639C5.16665 11.4706 5.14914 11.4747 5.13184 11.4795C5.11945 11.4829 5.10748 11.4878 5.09473 11.4902C5.06455 11.4961 5.03423 11.4988 5.00391 11.499C5.0026 11.499 5.00131 11.5 5 11.5H3C2.72386 11.5 2.5 11.2761 2.5 11C2.50001 10.7239 2.72386 10.5 3 10.5H4.11719L3.29785 9.13574C2.17903 7.27102 2.62341 4.86084 4.31836 3.50488Z" fill="red"/>
</svg>

<svg xmlns="http://www.w3.org/2000/svg" width="14" height="14" fill="none" viewBox="0 0 14 14"><path fill="red" d="M4.318 3.505a4.324 4.324 0 0 1 5.368-.03 4.31 4.31 0 0 1 1.043 5.586L9.878 10.5H11a.5.5 0 0 1 0 1H9q-.015 0-.028-.003a.5.5 0 0 1-.155-.033l-.039-.018-.033-.015-.013-.01q-.023-.016-.044-.033l-.033-.027-.03-.034q-.019-.02-.035-.042l-.02-.032q-.016-.025-.027-.05l-.016-.045q-.008-.021-.013-.044-.005-.026-.008-.053-.004-.023-.005-.047L8.5 11l.002-.028a.5.5 0 0 1 .033-.155l.004-.011.03-.06 1.3-2.195a3.31 3.31 0 0 0-.803-4.29 3.32 3.32 0 0 0-4.123.025 3.35 3.35 0 0 0-.788 4.335l1.274 2.122.01.023q.016.027.027.055l.006.013q.005.017.008.035l.01.04q.017.09.001.18l-.009.035a.5.5 0 0 1-.142.24q-.016.015-.033.028l-.042.03-.008.007-.03.013q-.021.012-.043.022-.026.009-.052.015-.02.007-.037.011a.5.5 0 0 1-.091.009L5 11.5H3a.5.5 0 0 1 0-1h1.117l-.82-1.364a4.354 4.354 0 0 1 1.021-5.631"/></svg>
